**kern
*clefG2
*k[f#c#g#]
*M4/4
=1-
16b
8r
8b
16r
4r
4a
16g-
16r
=2
1r
=3
2g#
16r
16a
16g#
8.f#
8g#
=4
4f#
4f#
4f-
4e
=5
2d
4c#
8d
(8e
=6
4e)
4e-
2d
=7
1d
=8
16c#
2r
16c#
16d
8r
16e
8r
=9
2f-
16f-
8f-
4g#
16a
=10
4g#
16g#
16a
16a
4g#
4f#
16f#
=11
(1e
=12
2d)
16d
8c#
4B
16B
=13
8A
16A
4A
8G#
16G#
4.r
=14
1G#
=15
2A
2A
=16
8B
16A
16G#
16r
2F#
16G#
16G#
16G#
=17
16G#
8F#
8F#
16E
(16F#
4G#)
8G#
16F#
16G#
16A
=18
4r
4.r
16A
8.B
8B
=19
16cn
(2d
16d-
16cn)
4cn
16d-
=20
4c#
8B
2A
16B-
16B-
=21
*_